src/icons/ada.svg

<svg
  width="24"
  height="24"
  viewBox="0 0 24 24"
  fill="none"
  xmlns="http://www.w3.org/2000/svg"
>
  <path
    d="M2 12L4.9 10.93C5.15 9.83 5.77 9.2 5.77 9.2C6.51935 8.45097 7.53549 8.0302 8.595 8.0302C9.65451 8.0302 10.6707 8.45097 11.42 9.2L12.83 10.61L19.14 3.91C20.09 7.72 19.14 11.53 16.81 14.6L22 19.62C22 19.62 13.53 21.52 8.6 17.67C5.97 15.61 5.38 14.41 5.01 13.15L2 12ZM7.04 12.21C7.41 12.58 8.02 12.58 8.39 12.21C8.76 11.84 8.76 11.24 8.39 10.87C8.21029 10.6923 7.96774 10.5926 7.715 10.5926C7.46226 10.5926 7.21972 10.6923 7.04 10.87C6.67 11.24 6.67 11.84 7.04 12.21Z"
    fill="#0277BD"
  />
</svg>

<svg xmlns="http://www.w3.org/2000/svg" viewBox="0 0 24 24">
  <path
    d="m2 12 2.9-1.07c.25-1.1.87-1.73.87-1.73a3.996 3.996 0 0 1 5.65 0l1.41 1.41 6.31-6.7c.95 3.81 0 7.62-2.33 10.69L22 19.62s-8.47 1.9-13.4-1.95c-2.63-2.06-3.22-3.26-3.59-4.52L2 12m5.04.21c.37.37.98.37 1.35 0 .37-.37.37-.97 0-1.34a.96.96 0 0 0-1.35 0c-.37.37-.37.97 0 1.34z"
    fill="#0277bd"
  />
</svg>
